X:251
T:B251-  Jog On, or Eighty-Eight
S:(1st/2)
Q:1/4=120
L:1/4
M:3/4
K:Ddor
G|c2G|c2d|ede|d2G|\
c2B|c2d|e3|d2:|d|\
e2f|g2g|fef|e2e|\
ded|ABc|B3|.A2|]

